src/topics/icons/sensu.svg

<svg height="151" preserveAspectRatio="xMidYMid" viewBox="0 0 256 151" width="256" xmlns="http://www.w3.org/2000/svg"><path d="m256 127.997935c0-62.0497199-50.030796-127.997935-128.298667-127.997935-78.2678706 0-127.701333 66.1773763-127.701333 127.997935h116.530237l-10.207656 4.014796c0 2.852473 5.318881 18.121635 22.021505 18.121635 16.701936 0 21.562495-16.086022 21.562495-18.107871l-10.09342-4.02856zm-174.1667097-15.684817h-65.0191828c1.1354839-22.0497202 29.8666667-96.6193546 111.7591395-96.6193546 84.301076 0 110.193549 79.9889893 110.749592 96.6193546h-64.935226s-9.857376-33.2359567-45.814366-33.2359567c-35.9569889 0-46.7399567 33.2359567-46.7399567 33.2359567z" fill="#92c72e"/></svg>

<?xml version="1.0" encoding="UTF-8" standalone="no"?>
<svg width="256px" height="151px" viewBox="0 0 256 151" version="1.1" xmlns="http://www.w3.org/2000/svg" xmlns:xlink="http://www.w3.org/1999/xlink" preserveAspectRatio="xMidYMid">
    <g>
        <path d="M256,127.997935 C256,65.9482151 205.969204,0 127.701333,0 C49.4334624,0 0,66.1773763 0,127.997935 L116.530237,127.997935 L106.322581,132.012731 C106.322581,134.865204 111.641462,150.134366 128.344086,150.134366 C145.046022,150.134366 149.906581,134.048344 149.906581,132.026495 L139.813161,127.997935 L256,127.997935 L256,127.997935 Z M81.8332903,112.313118 L16.8141075,112.313118 C17.9495914,90.2633978 46.6807742,15.6937634 128.573247,15.6937634 C212.874323,15.6937634 238.766796,95.6827527 239.322839,112.313118 L174.387613,112.313118 C174.387613,112.313118 164.530237,79.0771613 128.573247,79.0771613 C92.6162581,79.0771613 81.8332903,112.313118 81.8332903,112.313118 L81.8332903,112.313118 Z" fill="#92C72E"></path>
    </g>
</svg>
